X: 117
M:4/4
L:1/8
Q:160
K:F
|: cB| A2 c2 G2 c2| F2 c2 E2 c2|D4 B2 ^C2 ^G4| A6 ag|fafa fafa|egeg egeg| f2 ed Ad^c>e|d6:|

